libs/ui/packages/crypto-icons/src/svg/SCRT.svg

<svg xmlns="http://www.w3.org/2000/svg" width="1000" height="1000" viewBox="0 0 1000 1000" fill="none"><path fill="#151a20" d="M853.568 146.5C759.083 52 633.57 0 500.05 0 224.302 0 0 224.3 0 500s224.302 500 500.05 500c133.52 0 259.133-52 353.518-146.5C948.053 759 1000 633.5 1000 500s-51.947-259.1-146.432-353.5M500.05 965.4C243.419 965.4 34.631 756.6 34.631 500S243.42 34.6 500.05 34.6 965.469 243.4 965.469 500 756.681 965.4 500.05 965.4"/><path fill="#fff" d="M663.879 511.702c-31.991-28.591-73.878-47.686-114.467-66.18l-.299-.1c-71.58-32.691-133.462-60.982-129.063-127.863 1.9-25.493 20.394-40.888 35.59-49.186 17.095-9.397 39.788-14.995 60.782-14.995 2.499 0 4.999.1 7.398.2 61.082 4.098 109.268 29.991 156.354 83.775l2.8 3.299 3.299-2.799 18.394-15.995 3.299-2.899-2.899-3.299c-52.485-60.183-109.468-90.474-179.148-95.173-2.999-.3-6.198-.4-9.697-.4-2.099 0-4.399 0-6.798.1h-2.999c-45.687 0-95.772 14.996-133.861 40.189-45.487 30.091-70.979 71.479-71.679 116.566-1.8 109.668 87.874 146.557 166.951 179.248l.2.099.8.3c69.98 28.992 130.362 53.985 129.062 120.965-.599 44.187-63.781 68.58-107.168 68.58h-6.099v.1c-64.681-1.899-122.464-29.791-171.75-82.676l-2.999-3.199-3.199 2.899-17.895 16.596-3.199 2.999 2.999 3.199c55.984 60.282 125.064 92.673 199.842 93.572h3.399c48.286 0 100.771-12.996 140.359-34.889 49.586-27.093 78.478-66.581 81.477-111.168 3.399-48.986-12.897-88.874-49.786-121.865M431.747 416.33c28.492 24.393 67.08 41.888 104.369 58.783l.7.3c39.489 18.195 76.878 35.39 103.97 59.283 29.991 26.392 42.687 56.983 39.988 96.272-2.499 38.888-31.391 64.881-57.683 80.576 5.099-10.397 7.898-21.693 8.198-33.69.599-40.388-14.896-72.679-47.487-98.871-28.491-22.893-66.28-38.389-102.87-53.485-76.077-31.29-147.956-60.882-146.657-148.256.4-33.591 20.594-65.381 56.884-89.474 1.199-.8 2.399-1.6 3.699-2.4-4.299 9.398-6.699 19.195-7.298 29.492-2.899 40.488 11.596 73.678 44.187 101.47"/></svg>

<svg xmlns="http://www.w3.org/2000/svg" width="1000" height="1000" viewBox="0 0 1000 1000" fill="none">
  <path d="M853.568 146.5C759.083 52 633.57 0 500.05 0C224.302 0 0 224.3 0 500C0 775.7 224.302 1000 500.05 1000C633.57 1000 759.183 948 853.568 853.5C948.053 759 1000 633.5 1000 500C1000 366.5 948.053 240.9 853.568 146.5ZM500.05 965.4C243.419 965.4 34.6312 756.6 34.6312 500C34.6312 243.4 243.419 34.6 500.05 34.6C756.681 34.6 965.469 243.4 965.469 500C965.469 756.6 756.681 965.4 500.05 965.4Z" fill="#151A20"/>
  <path d="M663.879 511.702C631.888 483.111 590.001 464.016 549.412 445.522L549.113 445.422C477.533 412.731 415.651 384.44 420.05 317.559C421.95 292.066 440.444 276.671 455.64 268.373C472.735 258.976 495.428 253.378 516.422 253.378C518.921 253.378 521.421 253.478 523.82 253.578C584.902 257.676 633.088 283.569 680.174 337.353L682.974 340.652L686.273 337.853L704.667 321.858L707.966 318.959L705.067 315.66C652.582 255.477 595.599 225.186 525.919 220.487C522.92 220.187 519.721 220.087 516.222 220.087C514.123 220.087 511.823 220.087 509.424 220.187H506.425C460.738 220.187 410.653 235.183 372.564 260.376C327.077 290.467 301.585 331.855 300.885 376.942C299.085 486.61 388.759 523.499 467.836 556.19L468.036 556.289L468.836 556.589C538.816 585.581 599.198 610.574 597.898 677.554C597.299 721.741 534.117 746.134 490.73 746.134H488.93H484.631V746.234C419.95 744.335 362.167 716.443 312.881 663.558L309.882 660.359L306.683 663.258L288.788 679.854L285.589 682.853L288.588 686.052C344.572 746.334 413.652 778.725 488.43 779.624H491.829C540.115 779.624 592.6 766.628 632.188 744.735C681.774 717.642 710.666 678.154 713.665 633.567C717.064 584.581 700.768 544.693 663.879 511.702ZM431.747 416.33C460.239 440.723 498.827 458.218 536.116 475.113L536.816 475.413C576.305 493.608 613.694 510.803 640.786 534.696C670.777 561.088 683.473 591.679 680.774 630.968C678.275 669.856 649.383 695.849 623.091 711.544C628.19 701.147 630.989 689.851 631.289 677.854C631.888 637.466 616.393 605.175 583.802 578.983C555.311 556.09 517.522 540.594 480.932 525.498C404.855 494.208 332.976 464.616 334.275 377.242C334.675 343.651 354.869 311.861 391.159 287.768C392.358 286.968 393.558 286.168 394.858 285.368C390.559 294.766 388.159 304.563 387.56 314.86C384.661 355.348 399.156 388.538 431.747 416.33Z" fill="white"/>
</svg>
